products/org.csstudio.iter.css.product/SymbolLibrary_full_hd_deprecated/SVG/Fluid/Filters/FI Liquid Filter.svg

<?xml version="1.0" encoding="UTF-8" standalone="no"?>
<!-- Généré par Microsoft Visio 11.0, SVG Export, v1.0 FL_EF1504.svg Page-1 -->

<!--
/*******************************************************************************
* Copyright (c) 2010-2016 ITER Organization.
* All rights reserved. This program and the accompanying materials
* are made available under the terms of the Eclipse Public License v1.0
* which accompanies this distribution, and is available at
* http://www.eclipse.org/legal/epl-v10.html
******************************************************************************/
-->
<svg
   xmlns:v="http://schemas.microsoft.com/visio/2003/SVGExtensions/"
   xmlns:dc="http://purl.org/dc/elements/1.1/"
   xmlns:cc="http://creativecommons.org/ns#"
   xmlns:rdf="http://www.w3.org/1999/02/22-rdf-syntax-ns#"
   xmlns:svg="http://www.w3.org/2000/svg"
   xmlns="http://www.w3.org/2000/svg"
   xmlns:sodipodi="http://sodipodi.sourceforge.net/DTD/sodipodi-0.dtd"
   xmlns:inkscape="http://www.inkscape.org/namespaces/inkscape"
   width="34"
   height="54"
   viewBox="0 0 27.200016 43.200008"
   xml:space="preserve"
   color-interpolation-filters="sRGB"
   class="st2"
   id="svg2"
   version="1.1"
   inkscape:version="0.48.2 r9819"
   sodipodi:docname="FL_EF1501.svg"
   style="font-size:12px;fill:none;stroke-linecap:square;stroke-miterlimit:3;overflow:visible"><metadata
   id="metadata59"><rdf:RDF><cc:Work
       rdf:about=""><dc:format>image/svg+xml</dc:format><dc:type
         rdf:resource="http://purl.org/dc/dcmitype/StillImage" /></cc:Work></rdf:RDF></metadata><defs
   id="defs57">
		
		<v:pageProperties
   v:shadowOffsetY="-8.50394"
   v:shadowOffsetX="8.50394"
   v:drawingUnits="24"
   v:pageScale="0.0393701"
   v:drawingScale="0.0393701" />
		
		
	
			
			
		
			
			
			
		
				
				
			
				
				
			
				
				
				
				
				
				
				
				
				
				
				
				
				
				
			</defs><sodipodi:namedview
   pagecolor="#ffffff"
   bordercolor="#666666"
   borderopacity="1"
   objecttolerance="10"
   gridtolerance="10"
   guidetolerance="10"
   inkscape:pageopacity="0"
   inkscape:pageshadow="2"
   inkscape:window-width="1366"
   inkscape:window-height="716"
   id="namedview55"
   showgrid="true"
   fit-margin-top="0"
   fit-margin-left="0"
   fit-margin-right="0"
   fit-margin-bottom="0"
   inkscape:zoom="14.385998"
   inkscape:cx="33.958419"
   inkscape:cy="27.998577"
   inkscape:window-x="-8"
   inkscape:window-y="-8"
   inkscape:window-maximized="1"
   inkscape:current-layer="svg2"><inkscape:grid
     type="xygrid"
     id="grid3036"
     empspacing="5"
     visible="true"
     enabled="true"
     snapvisiblegridlinesonly="true" /></sodipodi:namedview>
	<v:documentProperties
   v:langID="1036"
   v:metric="true"
   v:viewMarkup="false" />
	<style
   type="text/css"
   id="style4">
	
		.st1 {fill:#ffffff;stroke:none;stroke-linecap:round;stroke-linejoin:round;stroke-width:0.72}
		.st2 {fill:none;fill-rule:evenodd;font-size:12;overflow:visible;stroke-linecap:square;stroke-miterlimit:3}
		.st3 {fill:#ffffff}
		.st4 {stroke:#000000;stroke-linecap:round;stroke-linejoin:round;stroke-width:0.72}
	
	</style>
	<g
   id="g3163"><rect
     x="6.6174449e-024"
     y="-0.015953606"
     width="0.0159449"
     height="0.0159449"
     class="st1"
     id="rect16"
     style="fill:#ffffff;stroke:none" /><rect
     x="27.200016"
     y="43.184071"
     width="0.0159449"
     height="0.0159449"
     class="st1"
     id="rect21"
     style="fill:#ffffff;stroke:none" /><path
     d="m 0.9119055,42.830261 25.5100005,0 0,-42.5200003 -25.5100005,0 0,42.5200003 z"
     class="st3"
     id="path29"
     inkscape:connector-curvature="0"
     style="fill:#ffffff" /><path
     d="m 0.9119055,42.830261 25.5100005,0 0,-42.5200003 -25.5100005,0 0,42.5200003"
     class="st4"
     id="path31"
     inkscape:connector-curvature="0"
     style="stroke:#000000;stroke-width:0.72000003;stroke-linecap:round;stroke-linejoin:round" /><path
     d="m 17.921905,8.8102607 -8.5099995,0"
     class="st4"
     id="path33"
     inkscape:connector-curvature="0"
     style="stroke:#000000;stroke-width:0.72000003;stroke-linecap:round;stroke-linejoin:round" /><path
     d="m 26.421905,8.8102607 -4.25,0"
     class="st4"
     id="path35"
     inkscape:connector-curvature="0"
     style="stroke:#000000;stroke-width:0.72000003;stroke-linecap:round;stroke-linejoin:round" /><path
     d="m 0.9119055,7.3902607 0,28.3500003"
     class="st4"
     id="path37"
     inkscape:connector-curvature="0"
     style="stroke:#000000;stroke-width:0.72000003;stroke-linecap:round;stroke-linejoin:round" /><path
     d="m 0.9119055,34.320261 4.25,0"
     class="st4"
     id="path39"
     inkscape:connector-curvature="0"
     style="stroke:#000000;stroke-width:0.72000003;stroke-linecap:round;stroke-linejoin:round" /><path
     d="m 0.9119055,8.8102607 4.25,0"
     class="st4"
     id="path41"
     inkscape:connector-curvature="0"
     style="stroke:#000000;stroke-width:0.72000003;stroke-linecap:round;stroke-linejoin:round" /><path
     d="m 26.421905,7.3902607 0,-7.08 -25.5099995,0 0,7.08"
     class="st4"
     id="path43"
     inkscape:connector-curvature="0"
     style="stroke:#000000;stroke-width:0.72000003;stroke-linecap:round;stroke-linejoin:round" /><path
     d="m 17.921905,34.320261 -8.5099995,0"
     class="st4"
     id="path45"
     inkscape:connector-curvature="0"
     style="stroke:#000000;stroke-width:0.72000003;stroke-linecap:round;stroke-linejoin:round" /><path
     d="m 26.421905,34.320261 -4.25,0"
     class="st4"
     id="path47"
     inkscape:connector-curvature="0"
     style="stroke:#000000;stroke-width:0.72000003;stroke-linecap:round;stroke-linejoin:round" /><path
     d="m 26.421905,35.740261 0,-28.3500003"
     class="st4"
     id="path49"
     inkscape:connector-curvature="0"
     style="stroke:#000000;stroke-width:0.72000003;stroke-linecap:round;stroke-linejoin:round" /><path
     d="m 0.9119055,35.740261 0,7.09"
     class="st4"
     id="path51"
     inkscape:connector-curvature="0"
     style="stroke:#000000;stroke-width:0.72000003;stroke-linecap:round;stroke-linejoin:round" /><path
     d="m 0.9119055,42.830261 25.5100005,0 0,-7.09"
     class="st4"
     id="path53"
     inkscape:connector-curvature="0"
     style="stroke:#000000;stroke-width:0.72000003;stroke-linecap:round;stroke-linejoin:round" /></g>
</svg>

<?xml version="1.0" encoding="UTF-8"?>
<!--
/*******************************************************************************
* Copyright (c) 2010-2017 ITER Organization.
* All rights reserved. This program and the accompanying materials
* are made available under the terms of the Eclipse Public License v1.0
* which accompanies this distribution, and is available at
* http://www.eclipse.org/legal/epl-v10.html
******************************************************************************/
-->
<svg xmlns="http://www.w3.org/2000/svg" xmlns:xlink="http://www.w3.org/1999/xlink" width="29pt" height="45pt" viewBox="0 0 29 45" version="1.1">
<g id="surface1">
<path style=" stroke:none;fill-rule:evenodd;fill:rgb(100%,100%,100%);fill-opacity:1;" d="M 0.96875 44.726562 L 28.0625 44.726562 L 28.0625 0.324219 L 0.96875 0.324219 Z M 0.96875 44.726562 "/>
<path style="fill:none;stroke-width:0.72;stroke-linecap:round;stroke-linejoin:round;stroke:rgb(0%,0%,0%);stroke-opacity:1;stroke-miterlimit:3;" d="M 0.912184 42.831496 L 26.423922 42.831496 L 26.423922 0.310473 L 0.912184 0.310473 L 0.912184 42.831496 " transform="matrix(1.062011,0,0,1.044244,0,0.00000909106)"/>
<path style="fill:none;stroke-width:0.72;stroke-linecap:round;stroke-linejoin:round;stroke:rgb(0%,0%,0%);stroke-opacity:1;stroke-miterlimit:3;" d="M 17.923688 8.80944 L 9.412419 8.80944 " transform="matrix(1.062011,0,0,1.044244,0,0.00000909106)"/>
<path style="fill:none;stroke-width:0.72;stroke-linecap:round;stroke-linejoin:round;stroke:rgb(0%,0%,0%);stroke-opacity:1;stroke-miterlimit:3;" d="M 26.423922 8.80944 L 22.171966 8.80944 " transform="matrix(1.062011,0,0,1.044244,0,0.00000909106)"/>
<path style="fill:none;stroke-width:0.72;stroke-linecap:round;stroke-linejoin:round;stroke:rgb(0%,0%,0%);stroke-opacity:1;stroke-miterlimit:3;" d="M 0.912184 7.387958 L 0.912184 35.739047 " transform="matrix(1.062011,0,0,1.044244,0,0.00000909106)"/>
<path style="fill:none;stroke-width:0.72;stroke-linecap:round;stroke-linejoin:round;stroke:rgb(0%,0%,0%);stroke-opacity:1;stroke-miterlimit:3;" d="M 0.912184 34.321306 L 5.164141 34.321306 " transform="matrix(1.062011,0,0,1.044244,0,0.00000909106)"/>
<path style="fill:none;stroke-width:0.72;stroke-linecap:round;stroke-linejoin:round;stroke:rgb(0%,0%,0%);stroke-opacity:1;stroke-miterlimit:3;" d="M 0.912184 8.80944 L 5.164141 8.80944 " transform="matrix(1.062011,0,0,1.044244,0,0.00000909106)"/>
<path style="fill:none;stroke-width:0.72;stroke-linecap:round;stroke-linejoin:round;stroke:rgb(0%,0%,0%);stroke-opacity:1;stroke-miterlimit:3;" d="M 26.423922 7.387958 L 26.423922 0.310473 L 0.912184 0.310473 L 0.912184 7.387958 " transform="matrix(1.062011,0,0,1.044244,0,0.00000909106)"/>
<path style="fill:none;stroke-width:0.72;stroke-linecap:round;stroke-linejoin:round;stroke:rgb(0%,0%,0%);stroke-opacity:1;stroke-miterlimit:3;" d="M 17.923688 34.321306 L 9.412419 34.321306 " transform="matrix(1.062011,0,0,1.044244,0,0.00000909106)"/>
<path style="fill:none;stroke-width:0.72;stroke-linecap:round;stroke-linejoin:round;stroke:rgb(0%,0%,0%);stroke-opacity:1;stroke-miterlimit:3;" d="M 26.423922 34.321306 L 22.171966 34.321306 " transform="matrix(1.062011,0,0,1.044244,0,0.00000909106)"/>
<path style="fill:none;stroke-width:0.72;stroke-linecap:round;stroke-linejoin:round;stroke:rgb(0%,0%,0%);stroke-opacity:1;stroke-miterlimit:3;" d="M 26.423922 35.739047 L 26.423922 7.387958 " transform="matrix(1.062011,0,0,1.044244,0,0.00000909106)"/>
<path style="fill:none;stroke-width:0.72;stroke-linecap:round;stroke-linejoin:round;stroke:rgb(0%,0%,0%);stroke-opacity:1;stroke-miterlimit:3;" d="M 0.912184 35.739047 L 0.912184 42.831496 " transform="matrix(1.062011,0,0,1.044244,0,0.00000909106)"/>
<path style="fill:none;stroke-width:0.72;stroke-linecap:round;stroke-linejoin:round;stroke:rgb(0%,0%,0%);stroke-opacity:1;stroke-miterlimit:3;" d="M 0.912184 42.831496 L 26.423922 42.831496 L 26.423922 35.739047 " transform="matrix(1.062011,0,0,1.044244,0,0.00000909106)"/>
</g>
</svg>
